packages/foundations/assets/icons/functional/images/communication/speech_bubble_question_mark_20_filled.svg

<svg width="20" height="20" viewBox="0 0 20 20" fill="none" xmlns="http://www.w3.org/2000/svg">
<g clip-path="url(#clip0_2204_2318)">
<path fill-rule="evenodd" clip-rule="evenodd" d="M15.4117 2C16.9215 2 18 3.13216 18 4.49859V12.5019C18 13.8683 16.8823 15.0005 15.4902 15.0005H6.84319C6.54904 15.0005 6.29415 15.0785 6.11766 15.2737L3.70595 17.7137C3.07851 18.3384 2 17.8699 2 16.9915V4.49859C2 3.13216 3.13734 2 4.52946 2H15.4117ZM10.0001 10.875C9.36032 10.875 8.875 11.3651 8.875 11.9888C8.875 12.6126 9.36032 13.125 10.0001 13.125C10.6397 13.125 11.125 12.6126 11.125 11.9888C11.125 11.3651 10.6397 10.875 10.0001 10.875ZM10.2434 3.85983C9.34395 3.85983 8.35702 4.29522 7.9314 4.63936L8.61287 6.40809C9.0433 6.16957 9.5981 5.98247 10.0776 5.98247C10.6365 5.98247 10.7826 6.23661 10.7826 6.51892C10.7826 6.83008 10.6051 7.03399 10.3623 7.22081L9.82261 7.59834C9.40231 7.90445 9.00302 8.3073 9.00302 9.11113V9.875H10.9976V9.11113C10.9928 8.84211 11.2676 8.64274 11.748 8.21872C12.2284 7.7947 12.7622 7.20891 12.7622 6.1391C12.7622 4.7503 11.6625 3.85983 10.2434 3.85983Z" fill="#1A1C1F"/>
</g>
<defs>
<clipPath id="clip0_2204_2318">
<rect width="20" height="20" fill="white"/>
</clipPath>
</defs>
</svg>

<svg xmlns="http://www.w3.org/2000/svg" width="20" height="20" fill="none"><g clip-path="url(#a)"><path fill="#1A1C1F" fill-rule="evenodd" d="M15.412 2C16.922 2 18 3.132 18 4.499v8.003A2.51 2.51 0 0 1 15.49 15H6.843c-.294 0-.549.078-.725.273l-2.412 2.44C3.079 18.338 2 17.87 2 16.99V4.5C2 3.132 3.137 2 4.53 2zM10 10.875c-.64 0-1.125.49-1.125 1.114S9.36 13.125 10 13.125s1.125-.512 1.125-1.136-.485-1.114-1.125-1.114m.243-7.015c-.9 0-1.886.435-2.312.78l.682 1.768c.43-.238.985-.426 1.465-.426.559 0 .705.255.705.537 0 .311-.178.515-.42.702l-.54.377c-.42.306-.82.71-.82 1.513v.764h1.995v-.764c-.005-.269.27-.468.75-.892s1.014-1.01 1.014-2.08c0-1.389-1.1-2.28-2.519-2.28" clip-rule="evenodd"/></g><defs><clipPath id="a"><path fill="#fff" d="M0 0h20v20H0z"/></clipPath></defs></svg>
